X: 165
T:The Lady Of The Lake
% Nottingham Music Database
S:Trad, arr Phil Rowe
M:6/8
K:G
A|"G"(B/2c/2)BA G2D|"C"(E/2F/2)ED G2c|"G"(B/2c/2)BA G2A|"G"Bcd "C"edc|
"G"(B/2c/2B)A G2D|"C"(E/2F/2)ED G2c|"G"Bcd "D7"ABc|"G"BAG G2::
A|"G"BcB (B/2c/2)BA|"G"B2c "D7"def|"Em"g2f "C"e2d|"G"dBG "D7"A2G|
"G"BcB (B/2c/2)BA|"G"B2c "D"def|"Em"g2e "A7"a2g|1"D"fge "D7"d2:|[2"D"fef "G"g3| 
<end>
<start>
